twotone/svg/palette.svg

<svg xmlns="http://www.w3.org/2000/svg" width="24" height="24"><path fill="none" d="M0 0h24v24H0V0z"/><g fill="currentColor"><path opacity=".3" d="M12 4c-4.41 0-8 3.59-8 8s3.59 8 8 8c.28 0 .5-.22.5-.5a.54.54 0 0 0-.14-.35c-.41-.46-.63-1.05-.63-1.65a2.5 2.5 0 0 1 2.5-2.5H16c2.21 0 4-1.79 4-4 0-3.86-3.59-7-8-7zm-5.5 9c-.83 0-1.5-.67-1.5-1.5S5.67 10 6.5 10s1.5.67 1.5 1.5S7.33 13 6.5 13zm3-4C8.67 9 8 8.33 8 7.5S8.67 6 9.5 6s1.5.67 1.5 1.5S10.33 9 9.5 9zm5 0c-.83 0-1.5-.67-1.5-1.5S13.67 6 14.5 6s1.5.67 1.5 1.5S15.33 9 14.5 9zm4.5 2.5c0 .83-.67 1.5-1.5 1.5s-1.5-.67-1.5-1.5.67-1.5 1.5-1.5 1.5.67 1.5 1.5z"/><path d="M12 2C6.49 2 2 6.49 2 12s4.49 10 10 10a2.5 2.5 0 0 0 1.86-4.17.495.495 0 0 1 .37-.83H16c3.31 0 6-2.69 6-6 0-4.96-4.49-9-10-9zm4 13h-1.77a2.5 2.5 0 0 0-2.5 2.5c0 .61.22 1.19.63 1.65.06.07.14.19.14.35 0 .28-.22.5-.5.5-4.41 0-8-3.59-8-8s3.59-8 8-8 8 3.14 8 7c0 2.21-1.79 4-4 4z"/><circle cx="6.5" cy="11.5" r="1.5"/><circle cx="9.5" cy="7.5" r="1.5"/><circle cx="14.5" cy="7.5" r="1.5"/><circle cx="17.5" cy="11.5" r="1.5"/></g></svg>

<?xml version="1.0" encoding="utf-8"?>
<!-- Generator: Adobe Illustrator 19.1.0, SVG Export Plug-In . SVG Version: 6.00 Build 0)  -->
<svg version="1.1" xmlns="http://www.w3.org/2000/svg" xmlns:xlink="http://www.w3.org/1999/xlink" x="0px" y="0px" width="24px"
	 height="24px" viewBox="0 0 24 24" enable-background="new 0 0 24 24" xml:space="preserve">
<g id="Bounding_Boxes">
	<g id="ui_x5F_spec_x5F_header_copy_2">
	</g>
	<path fill="none" d="M0,0h24v24H0V0z"/>
</g>
<g id="Duotone" fill="currentColor">
	<g id="ui_x5F_spec_x5F_header_copy_3">
	</g>
	<g>
		<path opacity="0.3" d="M12,4c-4.41,0-8,3.59-8,8s3.59,8,8,8c0.28,0,0.5-0.22,0.5-0.5c0-0.16-0.08-0.28-0.14-0.35
			c-0.41-0.46-0.63-1.05-0.63-1.65c0-1.38,1.12-2.5,2.5-2.5H16c2.21,0,4-1.79,4-4C20,7.14,16.41,4,12,4z M6.5,13
			C5.67,13,5,12.33,5,11.5C5,10.67,5.67,10,6.5,10S8,10.67,8,11.5C8,12.33,7.33,13,6.5,13z M9.5,9C8.67,9,8,8.33,8,7.5
			C8,6.67,8.67,6,9.5,6S11,6.67,11,7.5C11,8.33,10.33,9,9.5,9z M14.5,9C13.67,9,13,8.33,13,7.5C13,6.67,13.67,6,14.5,6
			S16,6.67,16,7.5C16,8.33,15.33,9,14.5,9z M19,11.5c0,0.83-0.67,1.5-1.5,1.5S16,12.33,16,11.5c0-0.83,0.67-1.5,1.5-1.5
			S19,10.67,19,11.5z"/>
		<path d="M12,2C6.49,2,2,6.49,2,12s4.49,10,10,10c1.38,0,2.5-1.12,2.5-2.5c0-0.61-0.23-1.21-0.64-1.67
			c-0.08-0.09-0.13-0.21-0.13-0.33c0-0.28,0.22-0.5,0.5-0.5H16c3.31,0,6-2.69,6-6C22,6.04,17.51,2,12,2z M16,15h-1.77
			c-1.38,0-2.5,1.12-2.5,2.5c0,0.61,0.22,1.19,0.63,1.65c0.06,0.07,0.14,0.19,0.14,0.35c0,0.28-0.22,0.5-0.5,0.5c-4.41,0-8-3.59-8-8
			s3.59-8,8-8s8,3.14,8,7C20,13.21,18.21,15,16,15z"/>
		<circle cx="6.5" cy="11.5" r="1.5"/>
		<circle cx="9.5" cy="7.5" r="1.5"/>
		<circle cx="14.5" cy="7.5" r="1.5"/>
		<circle cx="17.5" cy="11.5" r="1.5"/>
	</g>
</g>
</svg>
